icons/file-code-line.svg

<svg viewBox="0 0 24 24" fill="currentColor" xmlns="http://www.w3.org/2000/svg">
    <path d="M15 4H5V20H19V8H15V4ZM3 2.9918C3 2.44405 3.44749 2 3.9985 2H16L20.9997 7L21 20.9925C21 21.5489 20.5551 22 20.0066 22H3.9934C3.44476 22 3 21.5447 3 21.0082V2.9918ZM17.6569 12L14.1213 15.5355L12.7071 14.1213L14.8284 12L12.7071 9.87868L14.1213 8.46447L17.6569 12ZM6.34315 12L9.87868 8.46447L11.2929 9.87868L9.17157 12L11.2929 14.1213L9.87868 15.5355L6.34315 12Z"/>
</svg>

<svg xmlns="http://www.w3.org/2000/svg" viewBox="0 0 24 24">
    <g>
        <path fill="none" d="M0 0h24v24H0z"/>
        <path d="M15 4H5v16h14V8h-4V4zM3 2.992C3 2.444 3.447 2 3.999 2H16l5 5v13.993A1 1 0 0 1 20.007 22H3.993A1 1 0 0 1 3 21.008V2.992zM17.657 12l-3.536 3.536-1.414-1.415L14.828 12l-2.12-2.121 1.413-1.415L17.657 12zM6.343 12L9.88 8.464l1.414 1.415L9.172 12l2.12 2.121-1.413 1.415L6.343 12z"/>
    </g>
</svg>
